X:203
T:Mazurka
C:trad
A:Morvan
O:France
Z:S. Piron
M:3/4
L:1/8
Q:1/4=150
K:C
g2|gf ed ef|g2 gc eg|f2 fd Bd|e2c2g2|gf ed ef|g2 gc eg|f2 d2B2|1c4:|2c6|
|:ed ef ed|c6|gf ga gf|e2 eG ce|d2 dg Bd|e2c4|
ed ef ed|c6|gf ga gf|e2 eG ce|d2 dg Bd|e2c4||
